apps/32/preferences-scroll.svg

<?xml version="1.0" encoding="UTF-8" standalone="no"?>
<!-- Created with Inkscape (http://www.inkscape.org/) -->

<svg
   width="32"
   height="32"
   viewBox="0 0 32 32"
   version="1.1"
   id="svg8"
   inkscape:version="1.2 (dc2aedaf03, 2022-05-15)"
   sodipodi:docname="preferences-scroll.svg"
   xml:space="preserve"
   xmlns:inkscape="http://www.inkscape.org/namespaces/inkscape"
   xmlns:sodipodi="http://sodipodi.sourceforge.net/DTD/sodipodi-0.dtd"
   xmlns:xlink="http://www.w3.org/1999/xlink"
   xmlns="http://www.w3.org/2000/svg"
   xmlns:svg="http://www.w3.org/2000/svg"
   xmlns:rdf="http://www.w3.org/1999/02/22-rdf-syntax-ns#"
   xmlns:cc="http://creativecommons.org/ns#"
   xmlns:dc="http://purl.org/dc/elements/1.1/"><title
     id="title7895">Antu icon Theme</title><defs
     id="defs2"><linearGradient
       inkscape:collect="always"
       id="linearGradient3057"><stop
         style="stop-color:#485158;stop-opacity:1;"
         offset="0"
         id="stop3053" /><stop
         style="stop-color:#5c6770;stop-opacity:1;"
         offset="1"
         id="stop3055" /></linearGradient><style
       type="text/css"
       id="current-color-scheme">
      .ColorScheme-Text {
        color:#122036;
      }
      </style><style
       id="current-color-scheme-1"
       type="text/css">
      .ColorScheme-Text {
        color:#122036;
      }
      </style><style
       id="current-color-scheme-6"
       type="text/css">
      .ColorScheme-Text {
        color:#36404d;
      }
      </style><style
       id="current-color-scheme-5"
       type="text/css">
      .ColorScheme-Text {
        color:#36404d;
      }
      </style><style
       id="current-color-scheme-60"
       type="text/css">
      .ColorScheme-Text {
        color:#36404d;
      }
      </style><style
       id="current-color-scheme-53"
       type="text/css">
      .ColorScheme-Text {
        color:#122036;
      }
      </style><style
       type="text/css"
       id="current-color-scheme-1-5">
      .ColorScheme-Text {
        color:#122036;
      }
      </style><linearGradient
       y2="1.0583466"
       x2="4.7624998"
       y1="6.6145968"
       x1="4.7624998"
       gradientTransform="matrix(3.7795275,0,0,3.7795275,-26,287.64994)"
       gradientUnits="userSpaceOnUse"
       id="linearGradient4759"
       xlink:href="#linearGradient4582-3"
       inkscape:collect="always" /><linearGradient
       id="linearGradient4582-3"
       inkscape:collect="always"><stop
         id="stop4578-5"
         offset="0"
         style="stop-color:#cee3e3;stop-opacity:1" /><stop
         id="stop4580-6"
         offset="1"
         style="stop-color:#fcfcfc;stop-opacity:1" /></linearGradient><linearGradient
       gradientTransform="translate(-15,2)"
       inkscape:collect="always"
       xlink:href="#linearGradient2126"
       id="linearGradient2128"
       x1="-3"
       y1="293.64999"
       x2="-3"
       y2="288.64999"
       gradientUnits="userSpaceOnUse" /><linearGradient
       inkscape:collect="always"
       id="linearGradient2126"><stop
         style="stop-color:#475057;stop-opacity:1;"
         offset="0"
         id="stop2122" /><stop
         style="stop-color:#5e6a73;stop-opacity:1"
         offset="1"
         id="stop2124" /></linearGradient><linearGradient
       inkscape:collect="always"
       xlink:href="#linearGradient3057"
       id="linearGradient3059"
       x1="2.1535752"
       y1="7.6461921"
       x2="2.1535752"
       y2="2.0899417"
       gradientUnits="userSpaceOnUse" /></defs><sodipodi:namedview
     id="base"
     pagecolor="#ffffff"
     bordercolor="#666666"
     borderopacity="1.0"
     inkscape:pageopacity="0.0"
     inkscape:pageshadow="2"
     inkscape:zoom="32"
     inkscape:cx="31.265625"
     inkscape:cy="13.984375"
     inkscape:document-units="px"
     inkscape:current-layer="layer1"
     showgrid="true"
     units="px"
     inkscape:window-width="2160"
     inkscape:window-height="1335"
     inkscape:window-x="0"
     inkscape:window-y="0"
     inkscape:window-maximized="1"
     objecttolerance="10"
     gridtolerance="10"
     guidetolerance="10"
     inkscape:showpageshadow="2"
     inkscape:pagecheckerboard="0"
     inkscape:deskcolor="#d1d1d1"><inkscape:grid
       type="xygrid"
       id="grid7897"
       empspacing="4" /></sodipodi:namedview><metadata
     id="metadata5"><rdf:RDF><cc:Work
         rdf:about=""><dc:format>image/svg+xml</dc:format><dc:type
           rdf:resource="http://purl.org/dc/dcmitype/StillImage" /><dc:title>Antu icon Theme</dc:title></cc:Work></rdf:RDF></metadata><g
     inkscape:label="Capa 1"
     inkscape:groupmode="layer"
     id="layer1"
     transform="translate(0,-282.64999)"><g
       id="g2924-2"
       transform="translate(26,-5)"><path
         inkscape:connector-curvature="0"
         style="fill:#90a4ae;fill-opacity:1;stroke-width:1"
         d="m -25,289.64999 c -0.55401,0 -1,0.446 -1,1 v 26 c 0,0.554 0.44599,1 1,1 H 5 c 0.55401,0 1,-0.446 1,-1 v -26 c 0,-0.554 -0.44599,-1 -1,-1 h -14 -3 z"
         id="path12329-9" /><path
         style="fill:url(#linearGradient4759);fill-opacity:1;stroke-width:1"
         d="m -25,290.64999 v 5 H 5 v -5 h -15 -2 z m 0,6 v 20 H 5 v -20 z"
         id="path13-5-2-9-4-2-6-6-1"
         inkscape:connector-curvature="0"
         sodipodi:nodetypes="cccccccccccc" /><path
         inkscape:connector-curvature="0"
         style="opacity:1;fill:#343b40;fill-opacity:1;stroke:none;stroke-width:0.808;stroke-linecap:round;stroke-linejoin:round;stroke-miterlimit:4;stroke-dasharray:none;stroke-opacity:1;paint-order:stroke markers fill"
         d="m -25,289.64999 c -0.554,0 -1,0.446 -1,1 v 5 1 h 1 30 1 v -1 -5 c 0,-0.554 -0.446,-1 -1,-1 z"
         id="rect1191-2" /><path
         inkscape:connector-curvature="0"
         style="fill:url(#linearGradient2128);fill-opacity:1;stroke:none;stroke-width:0.4;stroke-linecap:round;stroke-linejoin:round;stroke-miterlimit:4;stroke-dasharray:none;stroke-opacity:1"
         d="m -25,290.64999 v 5 H 5 v -5 z"
         id="rect4537-2-7"
         sodipodi:nodetypes="ccccc" /></g><g
       id="g871"
       transform="matrix(2.15973,0,0,2.15973,21.348859,291.13628)"><path
         id="rect360"
         style="fill:#343b40;fill-opacity:1;stroke:none;stroke-width:0.529167;stroke-linecap:round;stroke-linejoin:round;stroke-miterlimit:1.8;paint-order:fill markers stroke;stop-color:#000000"
         d="M 2.1535752,1.1639001 C 1.9987671,1.163914 1.8542047,1.2412861 1.7683274,1.3700891 L 0.84228573,2.7591516 C 0.63723947,3.0668518 0.85776963,3.4789256 1.2275335,3.4790043 H 3.0796169 C 3.4493799,3.4789256 3.669911,3.0668518 3.4648647,2.7591516 L 2.538823,1.3700891 C 2.4529457,1.2412861 2.3083833,1.163914 2.1535752,1.1639001 Z m 0,2.7781251 c -0.5130266,0 -0.9260417,0.4130151 -0.9260417,0.9260416 0,0.5130266 0.4130151,0.9260417 0.9260417,0.9260417 0.5130266,0 0.9260417,-0.4130151 0.9260417,-0.9260417 0,-0.5130265 -0.4130151,-0.9260416 -0.9260417,-0.9260416 z M 1.2275335,6.2571294 C 0.85776963,6.2572081 0.63723947,6.6692819 0.84228573,6.9769821 L 1.7683274,8.3660446 c 0.085877,0.128803 0.2304397,0.2061751 0.3852478,0.206189 0.1548081,-1.39e-5 0.2993705,-0.077386 0.3852478,-0.206189 L 3.4648647,6.9769821 C 3.669911,6.6692819 3.4493799,6.2572081 3.0796169,6.2571294 Z" /><path
         id="rect1435"
         style="fill:url(#linearGradient3059);fill-opacity:1;stroke:none;stroke-width:0.370417;stroke-linecap:round;stroke-linejoin:round;stroke-miterlimit:1.8;paint-order:fill markers stroke;stop-color:#000000"
         d="M 2.1535752,1.626921 1.2275335,3.0159835 h 1.8520834 z m 0,2.778125 c -0.2565133,0 -0.4630208,0.2065076 -0.4630208,0.4630208 0,0.2565133 0.2065075,0.4630209 0.4630208,0.4630209 0.2565133,0 0.4630209,-0.2065076 0.4630209,-0.4630209 0,-0.2565132 -0.2065076,-0.4630208 -0.4630209,-0.4630208 z M 1.2275335,6.7201502 2.1535752,8.1092127 3.0796169,6.7201502 Z" /></g><g
       id="path1556"
       style="stroke:#3182d9;stroke-width:2"
       transform="translate(-2)"><g
         id="path1751" /></g><g
       id="path1556-6"
       style="stroke:#3182d9;stroke-width:2"
       transform="matrix(1,0,0,-1,-2,603.29998)"><g
         id="path1751-7" /></g></g></svg>

<?xml version="1.0" encoding="UTF-8" standalone="no"?>
<!-- Created with Inkscape (http://www.inkscape.org/) -->

<svg
   width="32"
   height="32"
   viewBox="0 0 32 32"
   version="1.1"
   id="svg8"
   inkscape:version="1.2 (dc2aedaf03, 2022-05-15)"
   sodipodi:docname="preferences-scroll.svg"
   xml:space="preserve"
   xmlns:inkscape="http://www.inkscape.org/namespaces/inkscape"
   xmlns:sodipodi="http://sodipodi.sourceforge.net/DTD/sodipodi-0.dtd"
   xmlns:xlink="http://www.w3.org/1999/xlink"
   xmlns="http://www.w3.org/2000/svg"
   xmlns:svg="http://www.w3.org/2000/svg"
   xmlns:rdf="http://www.w3.org/1999/02/22-rdf-syntax-ns#"
   xmlns:cc="http://creativecommons.org/ns#"
   xmlns:dc="http://purl.org/dc/elements/1.1/"><title
     id="title7895">Antu icon Theme</title><defs
     id="defs2"><linearGradient
       inkscape:collect="always"
       id="linearGradient3057"><stop
         style="stop-color:#485158;stop-opacity:1;"
         offset="0"
         id="stop3053" /><stop
         style="stop-color:#5c6770;stop-opacity:1;"
         offset="1"
         id="stop3055" /></linearGradient><linearGradient
       inkscape:collect="always"
       id="linearGradient1805"><stop
         style="stop-color:#3471ef;stop-opacity:1;"
         offset="0"
         id="stop1801" /><stop
         style="stop-color:#5795fb;stop-opacity:1;"
         offset="1"
         id="stop1803" /></linearGradient><style
       type="text/css"
       id="current-color-scheme">
      .ColorScheme-Text {
        color:#122036;
      }
      </style><style
       id="current-color-scheme-1"
       type="text/css">
      .ColorScheme-Text {
        color:#122036;
      }
      </style><style
       id="current-color-scheme-6"
       type="text/css">
      .ColorScheme-Text {
        color:#36404d;
      }
      </style><style
       id="current-color-scheme-5"
       type="text/css">
      .ColorScheme-Text {
        color:#36404d;
      }
      </style><style
       id="current-color-scheme-60"
       type="text/css">
      .ColorScheme-Text {
        color:#36404d;
      }
      </style><style
       id="current-color-scheme-53"
       type="text/css">
      .ColorScheme-Text {
        color:#122036;
      }
      </style><style
       type="text/css"
       id="current-color-scheme-1-5">
      .ColorScheme-Text {
        color:#122036;
      }
      </style><linearGradient
       y2="1.0583466"
       x2="4.7624998"
       y1="6.6145968"
       x1="4.7624998"
       gradientTransform="matrix(3.7795275,0,0,3.7795275,-26,287.64994)"
       gradientUnits="userSpaceOnUse"
       id="linearGradient4759"
       xlink:href="#linearGradient4582-3"
       inkscape:collect="always" /><linearGradient
       id="linearGradient4582-3"
       inkscape:collect="always"><stop
         id="stop4578-5"
         offset="0"
         style="stop-color:#cee3e3;stop-opacity:1" /><stop
         id="stop4580-6"
         offset="1"
         style="stop-color:#fcfcfc;stop-opacity:1" /></linearGradient><linearGradient
       gradientTransform="translate(-15,2)"
       inkscape:collect="always"
       xlink:href="#linearGradient2126"
       id="linearGradient2128"
       x1="-3"
       y1="293.64999"
       x2="-3"
       y2="288.64999"
       gradientUnits="userSpaceOnUse" /><linearGradient
       inkscape:collect="always"
       id="linearGradient2126"><stop
         style="stop-color:#475057;stop-opacity:1;"
         offset="0"
         id="stop2122" /><stop
         style="stop-color:#5e6a73;stop-opacity:1"
         offset="1"
         id="stop2124" /></linearGradient><linearGradient
       inkscape:collect="always"
       xlink:href="#linearGradient1805"
       id="linearGradient1807"
       x1="27"
       y1="308.64999"
       x2="27"
       y2="294.64999"
       gradientUnits="userSpaceOnUse" /><linearGradient
       inkscape:collect="always"
       xlink:href="#linearGradient3057"
       id="linearGradient3059"
       x1="2.1535752"
       y1="7.6461921"
       x2="2.1535752"
       y2="2.0899417"
       gradientUnits="userSpaceOnUse" /></defs><sodipodi:namedview
     id="base"
     pagecolor="#ffffff"
     bordercolor="#666666"
     borderopacity="1.0"
     inkscape:pageopacity="0.0"
     inkscape:pageshadow="2"
     inkscape:zoom="32"
     inkscape:cx="31.21875"
     inkscape:cy="13.984375"
     inkscape:document-units="px"
     inkscape:current-layer="layer1"
     showgrid="true"
     units="px"
     inkscape:window-width="2160"
     inkscape:window-height="1335"
     inkscape:window-x="0"
     inkscape:window-y="0"
     inkscape:window-maximized="1"
     objecttolerance="10"
     gridtolerance="10"
     guidetolerance="10"
     inkscape:showpageshadow="2"
     inkscape:pagecheckerboard="0"
     inkscape:deskcolor="#d1d1d1"><inkscape:grid
       type="xygrid"
       id="grid7897"
       empspacing="4" /></sodipodi:namedview><metadata
     id="metadata5"><rdf:RDF><cc:Work
         rdf:about=""><dc:format>image/svg+xml</dc:format><dc:type
           rdf:resource="http://purl.org/dc/dcmitype/StillImage" /><dc:title>Antu icon Theme</dc:title></cc:Work></rdf:RDF></metadata><g
     inkscape:label="Capa 1"
     inkscape:groupmode="layer"
     id="layer1"
     transform="translate(0,-282.64999)"><g
       id="g2924-2"
       transform="translate(26,-5)"><path
         inkscape:connector-curvature="0"
         style="fill:#90a4ae;fill-opacity:1;stroke-width:1"
         d="m -25,289.64999 c -0.55401,0 -1,0.446 -1,1 v 26 c 0,0.554 0.44599,1 1,1 H 5 c 0.55401,0 1,-0.446 1,-1 v -26 c 0,-0.554 -0.44599,-1 -1,-1 h -14 -3 z"
         id="path12329-9" /><path
         style="fill:url(#linearGradient4759);fill-opacity:1;stroke-width:1"
         d="m -25,290.64999 v 5 H 5 v -5 h -15 -2 z m 0,6 v 20 H 5 v -20 z"
         id="path13-5-2-9-4-2-6-6-1"
         inkscape:connector-curvature="0"
         sodipodi:nodetypes="cccccccccccc" /><path
         inkscape:connector-curvature="0"
         style="opacity:1;fill:#343b40;fill-opacity:1;stroke:none;stroke-width:0.808;stroke-linecap:round;stroke-linejoin:round;stroke-miterlimit:4;stroke-dasharray:none;stroke-opacity:1;paint-order:stroke markers fill"
         d="m -25,289.64999 c -0.554,0 -1,0.446 -1,1 v 5 1 h 1 30 1 v -1 -5 c 0,-0.554 -0.446,-1 -1,-1 z"
         id="rect1191-2" /><path
         inkscape:connector-curvature="0"
         style="fill:url(#linearGradient2128);fill-opacity:1;stroke:none;stroke-width:0.4;stroke-linecap:round;stroke-linejoin:round;stroke-miterlimit:4;stroke-dasharray:none;stroke-opacity:1"
         d="m -25,290.64999 v 5 H 5 v -5 z"
         id="rect4537-2-7"
         sodipodi:nodetypes="ccccc" /></g><g
       id="g871"
       transform="matrix(2.15973,0,0,2.15973,15.348859,291.13628)"><path
         id="rect360"
         style="fill:#343b40;fill-opacity:1;stroke:none;stroke-width:0.529167;stroke-linecap:round;stroke-linejoin:round;stroke-miterlimit:1.8;paint-order:fill markers stroke;stop-color:#000000"
         d="M 2.1535752 1.1639001 C 1.9987671 1.163914 1.8542047 1.2412861 1.7683274 1.3700891 L 0.84228573 2.7591516 C 0.63723947 3.0668518 0.85776963 3.4789256 1.2275335 3.4790043 L 3.0796169 3.4790043 C 3.4493799 3.4789256 3.669911 3.0668518 3.4648647 2.7591516 L 2.538823 1.3700891 C 2.4529457 1.2412861 2.3083833 1.163914 2.1535752 1.1639001 z M 2.1535752 3.9420252 C 1.6405486 3.9420252 1.2275335 4.3550403 1.2275335 4.8680668 C 1.2275335 5.3810934 1.6405486 5.7941085 2.1535752 5.7941085 C 2.6666018 5.7941085 3.0796169 5.3810934 3.0796169 4.8680668 C 3.0796169 4.3550403 2.6666018 3.9420252 2.1535752 3.9420252 z M 1.2275335 6.2571294 C 0.85776963 6.2572081 0.63723947 6.6692819 0.84228573 6.9769821 L 1.7683274 8.3660446 C 1.8542047 8.4948476 1.9987671 8.5722197 2.1535752 8.5722336 C 2.3083833 8.5722197 2.4529457 8.4948476 2.538823 8.3660446 L 3.4648647 6.9769821 C 3.669911 6.6692819 3.4493799 6.2572081 3.0796169 6.2571294 L 1.2275335 6.2571294 z " /><path
         id="rect1435"
         style="fill:url(#linearGradient3059);fill-opacity:1;stroke:none;stroke-width:0.370417;stroke-linecap:round;stroke-linejoin:round;stroke-miterlimit:1.8;paint-order:fill markers stroke;stop-color:#000000"
         d="M 2.1535752 1.626921 L 1.2275335 3.0159835 L 3.0796169 3.0159835 L 2.1535752 1.626921 z M 2.1535752 4.405046 C 1.8970619 4.405046 1.6905544 4.6115536 1.6905544 4.8680668 C 1.6905544 5.1245801 1.8970619 5.3310877 2.1535752 5.3310877 C 2.4100885 5.3310877 2.6165961 5.1245801 2.6165961 4.8680668 C 2.6165961 4.6115536 2.4100885 4.405046 2.1535752 4.405046 z M 1.2275335 6.7201502 L 2.1535752 8.1092127 L 3.0796169 6.7201502 L 1.2275335 6.7201502 z " /></g><g
       id="path1556"
       style="stroke:#3182d9;stroke-width:2"
       transform="translate(-2)"><g
         id="path1751" /></g><g
       id="path1556-6"
       style="stroke:#3182d9;stroke-width:2"
       transform="matrix(1,0,0,-1,-2,603.29998)"><g
         id="path1751-7" /></g><path
       id="rect1866"
       style="fill:#1664eb;stroke-width:2;stroke-linecap:round;stroke-linejoin:round;stroke-miterlimit:1.8;paint-order:fill markers stroke;stop-color:#000000;fill-opacity:1"
       d="m 27,292.64999 c 1.108,0 2,0.892 2,2 v 14 c 0,1.108 -0.892,2 -2,2 -1.108,0 -2,-0.892 -2,-2 v -14 c 0,-1.108 0.892,-2 2,-2 z" /><path
       id="rect1871"
       style="fill:url(#linearGradient1807);stroke-width:2;stroke-linecap:round;stroke-linejoin:round;stroke-miterlimit:1.8;paint-order:fill markers stroke;stop-color:#000000;fill-opacity:1"
       d="m 27,293.64999 c 0.554,0 1,0.446 1,1 v 14 c 0,0.554 -0.446,1 -1,1 -0.554,0 -1,-0.446 -1,-1 v -14 c 0,-0.554 0.446,-1 1,-1 z" /></g></svg>
